svg/logo/reddit_line.svg

<?xml version="1.0" encoding="UTF-8"?>
<svg width="24px" height="24px" viewBox="0 0 24 24" version="1.1" xmlns="http://www.w3.org/2000/svg" xmlns:xlink="http://www.w3.org/1999/xlink">
    <title>reddit_line</title>
    <g id="页面-1" stroke="none" stroke-width="1" fill="none" fill-rule="evenodd">
        <g id="Logo" transform="translate(-672.000000, -96.000000)" fill-rule="nonzero">
            <g id="reddit_line" transform="translate(672.000000, 96.000000)">
                 <path d="M24,0 L24,24 L0,24 L0,0 L24,0 Z M12.5934901,23.257841 L12.5819402,23.2595131 L12.5108777,23.2950439 L12.4918791,23.2987469 L12.4918791,23.2987469 L12.4767152,23.2950439 L12.4056548,23.2595131 C12.3958229,23.2563662 12.3870493,23.2590235 12.3821421,23.2649074 L12.3780323,23.275831 L12.360941,23.7031097 L12.3658947,23.7234994 L12.3769048,23.7357139 L12.4804777,23.8096931 L12.4953491,23.8136134 L12.4953491,23.8136134 L12.5071152,23.8096931 L12.6106902,23.7357139 L12.6232938,23.7196733 L12.6232938,23.7196733 L12.6266527,23.7031097 L12.609561,23.275831 C12.6075724,23.2657013 12.6010112,23.2592993 12.5934901,23.257841 L12.5934901,23.257841 Z M12.8583906,23.1452862 L12.8445485,23.1473072 L12.6598443,23.2396597 L12.6498822,23.2499052 L12.6498822,23.2499052 L12.6471943,23.2611114 L12.6650943,23.6906389 L12.6699349,23.7034178 L12.6699349,23.7034178 L12.678386,23.7104931 L12.8793402,23.8032389 C12.8914285,23.8068999 12.9022333,23.8029875 12.9078286,23.7952264 L12.9118235,23.7811639 L12.8776777,23.1665331 C12.8752882,23.1545897 12.8674102,23.1470016 12.8583906,23.1452862 L12.8583906,23.1452862 Z M12.1430473,23.1473072 C12.1332178,23.1423925 12.1221763,23.1452606 12.1156365,23.1525954 L12.1099173,23.1665331 L12.0757714,23.7811639 C12.0751323,23.7926639 12.0828099,23.8018602 12.0926481,23.8045676 L12.108256,23.8032389 L12.3092106,23.7104931 L12.3186497,23.7024347 L12.3186497,23.7024347 L12.3225043,23.6906389 L12.340401,23.2611114 L12.337245,23.2485176 L12.337245,23.2485176 L12.3277531,23.2396597 L12.1430473,23.1473072 Z" id="MingCute" fill-rule="nonzero"></path>
                <path d="M12,2 C17.5228,2 22,6.47715 22,12 C22,17.5228 17.5228,22 12,22 C6.47715,22 2,17.5228 2,12 C2,6.47715 6.47715,2 12,2 Z M12,4 C7.58172,4 4,7.58172 4,12 C4,16.4183 7.58172,20 12,20 C16.4183,20 20,16.4183 20,12 C20,7.58172 16.4183,4 12,4 Z M15,5.99999828 C15.5523,5.99999828 16,6.44772 16,6.99999828 C16,7.55228 15.5523,7.99999828 15,7.99999828 C14.5598,7.99999828 14.186,7.71553 14.0524,7.32039 L12.9202,7.09395 L12.6443,9.02528 C13.9586,9.12896 15.1685,9.54755 16.109,10.2059 C16.3012,10.3405 16.4845,10.4871 16.656,10.6449 C16.8512,10.552 17.0695,10.4999983 17.3,10.4999983 C18.1285,10.4999983 18.8,11.1716 18.8,11.9999983 C18.8,12.5773 18.4739,13.0784 17.9959,13.3292 L18,13.4999983 L18,13.4999983 C18,14.8824 17.1982,16.0316 16.109,16.7941 C15.0166,17.5588 13.5607,17.9999983 12,17.9999983 C10.4393,17.9999983 8.98341,17.5588 7.891,16.7941 C6.80176,16.0316 6,14.8824 6,13.4999983 L6.0041,13.3292 L6.0041,13.3292 C5.52606,13.0784 5.19995,12.5773 5.19995,11.9999983 C5.19995,11.1716 5.87152,10.4999983 6.69995,10.4999983 C6.93047,10.4999983 7.14883,10.552 7.34397,10.6449 C7.51547,10.4871 7.69876,10.3405 7.891,10.2059 C8.89815,9.50089 10.2143,9.07084 11.6366,9.00801 L12.005,6.42929 C12.0245,6.29325 12.099,6.1712 12.2112,6.09183 C12.3234,6.01246 12.4633,5.98276 12.5981,6.00971 L14.2488,6.33987 C14.4321,6.13149 14.7007,5.99999828 15,5.99999828 Z M12,11 C10.7993,11 9.75517,11.3423 9.03793,11.8444 C8.31753,12.3486 8,12.9494 8,13.5 C8,14.0506 8.31753,14.6514 9.03793,15.1556 C9.75517,15.6577 10.7993,16 12,16 C13.2007,16 14.2448,15.6577 14.9621,15.1556 C15.6825,14.6514 16,14.0506 16,13.5 C16,12.9494 15.6825,12.3486 14.9621,11.8444 C14.2448,11.3423 13.2007,11 12,11 Z M10,12 C10.5523,12 11,12.4477 11,13 C11,13.5523 10.5523,14 10,14 C9.44772,14 9,13.5523 9,13 C9,12.4477 9.44772,12 10,12 Z M14,12 C14.5523,12 15,12.4477 15,13 C15,13.5523 14.5523,14 14,14 C13.4477,14 13,13.5523 13,13 C13,12.4477 13.4477,12 14,12 Z" id="形状" fill="#09244B"></path>
            </g>
        </g>
    </g>
</svg>

<svg xmlns="http://www.w3.org/2000/svg" width="24" height="24"><g fill="none" fill-rule="nonzero"><path d="M24 0v24H0V0h24ZM12.593 23.258l-.011.002-.071.035-.02.004-.014-.004-.071-.035c-.01-.004-.019-.001-.024.005l-.004.01-.017.428.005.02.01.013.104.074.015.004.012-.004.104-.074.012-.016.004-.017-.017-.427c-.002-.01-.009-.017-.017-.018Zm.265-.113-.013.002-.185.093-.01.01-.003.011.018.43.005.012.008.007.201.093c.012.004.023 0 .029-.008l.004-.014-.034-.614c-.003-.012-.01-.02-.02-.022Zm-.715.002a.023.023 0 0 0-.027.006l-.006.014-.034.614c0 .012.007.02.017.024l.015-.002.201-.093.01-.008.004-.011.017-.43-.003-.012-.01-.01-.184-.092Z"/><path fill="#09244B" d="M12 2c5.523 0 10 4.477 10 10s-4.477 10-10 10S2 17.523 2 12 6.477 2 12 2Zm0 2a8 8 0 1 0 0 16 8 8 0 0 0 0-16Zm3 2a1 1 0 1 1-.948 1.32l-1.132-.226-.276 1.931c1.315.104 2.524.523 3.465 1.18.192.136.375.282.547.44a1.5 1.5 0 0 1 1.34 2.684L18 13.5c0 1.382-.802 2.532-1.891 3.294C15.017 17.56 13.561 18 12 18c-1.56 0-3.017-.441-4.109-1.206C6.801 16.032 6 14.882 6 13.5l.004-.17a1.5 1.5 0 0 1 1.34-2.685c.171-.158.355-.304.547-.44 1.007-.704 2.323-1.134 3.746-1.197l.368-2.579a.5.5 0 0 1 .593-.42l1.65.33A.998.998 0 0 1 15 6Zm-3 5c-1.2 0-2.245.342-2.962.844C8.318 12.35 8 12.95 8 13.5c0 .55.318 1.151 1.038 1.656.717.502 1.761.844 2.962.844 1.2 0 2.245-.342 2.962-.844C15.682 14.65 16 14.05 16 13.5c0-.55-.318-1.151-1.038-1.656C14.245 11.342 13.201 11 12 11Zm-2 1a1 1 0 1 1 0 2 1 1 0 0 1 0-2Zm4 0a1 1 0 1 1 0 2 1 1 0 0 1 0-2Z"/></g></svg>
